X: 7
T: The Little Fair Child
M: 6/8
L: 1/8
B: "O'Neill's 7"
N: "Tenderly" "setting 1" "collected by F. O'Neill"
Z: "Transcribed by Norbert Paap, norbertp@bdu.uva.nl"
K:D
G | A-d.d ~(dcd) | (efg) f2 e | ~(dcA) (AGA) | {A}B2 G A2z/2G/2 |
    A-d.d ~(dcd) | (efg) f2-e | (dcA) ~(GEA) | D3 D2 ||
D | (FGA) B-F.G | c-A.G A-F.D | .F.G.A .c.A.G | A-d.e d2 D |
    (FGA) (cAG) | ~(AGA) ~(fde) | dcA ~(GEA) | D3 D2 ||


